X: 8403
T: Cow That Ate The Blanket, The
R: jig
M: 6/8
K: Gmajor
|:BcA BGD|G3 GBd|eg/f/e dBG|ABA ABc|
BcA BGD|G3 GBd|ege dBA|BGF G3:|
|:g3 efg|fag fed|gfg edB|BAG ABc|
Bc/B/A BGD|GAG GBd|ege dBA|BGF G3:|

